components/Common/Svg/svgs/iOS.svg

<svg width="40" height="40" viewBox="0 0 40 40" fill="none" xmlns="http://www.w3.org/2000/svg">
<path fill-rule="evenodd" clip-rule="evenodd" d="M3.63379 13.0443C3.63379 12.1112 4.42641 11.3336 5.37757 11.3336C6.32872 11.3336 7.12135 12.1112 7.12135 13.0443C7.12135 13.9774 6.32872 14.755 5.37757 14.755C4.42641 14.755 3.63379 13.9774 3.63379 13.0443ZM3.75269 28.9849V16.5046H7.00245V28.9849H3.75269ZM16.9131 11.3336C15.5656 11.3336 14.4163 11.6058 13.3066 12.1501C10.4135 13.5497 8.74902 16.5435 8.74902 20.2759C8.74902 24.0083 10.3739 26.9243 13.267 28.2462C14.0596 28.5961 14.8523 28.7905 16.0412 28.946L16.0791 28.9485C16.6593 28.9865 17.2031 29.0221 17.785 28.946C18.9739 28.7905 19.7665 28.5961 20.5592 28.2462C23.4522 26.8854 25.0771 24.0083 25.0771 20.2759C25.0771 16.5435 23.4126 13.5497 20.5195 12.1501C19.3702 11.6058 18.2209 11.3336 16.9131 11.3336ZM18.0624 13.9774C19.8062 14.444 21.0347 15.9603 21.5499 18.2153C21.9066 19.7704 21.7877 21.5978 21.3122 23.0363C20.5592 25.2524 18.9343 26.5355 16.9131 26.4966C14.9315 26.5355 13.267 25.2524 12.514 23.0363C12.0384 21.5978 11.9195 19.8093 12.2762 18.2153C12.7518 15.9603 14.02 14.444 15.7638 13.9774C16.5168 13.8219 17.3094 13.8219 18.0624 13.9774ZM29.75 28.9847L29.4817 28.9399C28.1898 28.7246 26.9437 28.5169 25.9058 27.935C25.9058 27.935 26.5795 25.4078 26.6191 25.369C28.4422 25.991 31.0182 26.8075 32.7223 26.0299C33.6735 25.5634 34.1094 24.708 33.9905 23.736C33.832 22.6085 33.0394 21.9864 30.8993 21.2089C28.5214 20.3146 27.0947 19.2649 26.5399 17.8652C26.2624 17.1654 26.1832 16.31 26.3021 15.5325C26.6588 13.3941 28.3629 11.9167 30.9389 11.4501C31.6919 11.3335 33.3168 11.3335 34.1094 11.4501C35.2587 11.6445 36.5666 12.0722 36.5666 12.2277C36.5666 12.3055 35.8929 14.5994 35.8532 14.6771C34.7039 14.2494 33.4753 13.9384 32.3657 13.8995C30.8597 13.8606 29.1952 14.7549 29.4726 16.31C29.6707 17.282 30.3048 17.7486 32.6431 18.6817C34.3869 19.3815 35.1795 19.8481 35.8928 20.5479C36.8836 21.5199 37.2007 22.6474 37.2007 23.7749C37.2007 24.708 37.1214 25.1357 36.7647 25.8744C35.9325 27.624 34.268 28.6348 31.7316 28.907C31.256 28.9847 30.1463 29.0236 29.75 28.9847Z" fill="#161616"/>
</svg>

<svg width="40" height="40" viewBox="0 0 40 40" fill="none" xmlns="http://www.w3.org/2000/svg"><path fill-rule="evenodd" clip-rule="evenodd" d="M3.634 13.044c0-.933.792-1.71 1.744-1.71.95 0 1.743.777 1.743 1.71 0 .933-.792 1.711-1.743 1.711-.952 0-1.744-.778-1.744-1.71Zm.119 15.94v-12.48h3.25v12.48h-3.25Zm13.16-17.65c-1.347 0-2.497.272-3.606.816-2.893 1.4-4.558 4.394-4.558 8.126 0 3.732 1.625 6.648 4.518 7.97.793.35 1.585.545 2.774.7l.038.002c.58.038 1.124.074 1.706-.002 1.189-.155 1.982-.35 2.774-.7 2.893-1.36 4.518-4.238 4.518-7.97 0-3.732-1.664-6.726-4.558-8.126a8.16 8.16 0 0 0-3.606-.816Zm1.15 2.643c1.743.467 2.972 1.983 3.487 4.238.357 1.555.238 3.383-.238 4.821-.753 2.216-2.378 3.5-4.399 3.46-1.982.04-3.646-1.244-4.399-3.46a9.412 9.412 0 0 1-.238-4.82c.476-2.256 1.744-3.772 3.488-4.239a5.721 5.721 0 0 1 2.298 0ZM29.75 28.985l-.268-.045c-1.292-.215-2.538-.423-3.576-1.005 0 0 .674-2.527.713-2.566 1.823.622 4.4 1.439 6.103.66.951-.466 1.387-1.321 1.268-2.293-.158-1.128-.95-1.75-3.09-2.527-2.379-.894-3.805-1.944-4.36-3.344-.278-.7-.357-1.555-.238-2.332.357-2.139 2.06-3.616 4.637-4.083.753-.116 2.378-.116 3.17 0 1.15.195 2.458.622 2.458.778 0 .078-.674 2.371-.714 2.45-1.15-.429-2.378-.74-3.487-.779-1.506-.038-3.17.856-2.893 2.411.198.972.832 1.439 3.17 2.372 1.744.7 2.536 1.166 3.25 1.866.99.972 1.308 2.1 1.308 3.227 0 .933-.08 1.36-.436 2.1-.833 1.749-2.497 2.76-5.033 3.032-.476.078-1.586.117-1.982.078Z" fill="#161616"/></svg>
